X:235
T:Polska efter Johan Eric Blomgren
R:sl\"angpolska
H:Jfr #26, #106
A:H\"asslunda, Sk{\aa}ne
B:Notbok fr{\aa}n 1785
Z:id:hn-sp-235
M:3/4
L:1/16
K:Am
e2ec A2cA ^G2E2 | A^GAB cBcA B4 | e2ec A2cA ^G2E2 | A^GAB A4 A,4 :|
|: c2cd e4 c4 | dcde fefg f4 | d2dB G2B2 d2B2 | cBcd edef e4 |
e2ec A2cA ^G2E2 | A^GAB cBcA B4 | e2ec A2cA ^G2E2 | A^GAB A4 A,4 :|

